X: 45
M:C
L:1/8
K:G
(de/f/) | g2 d>d d2 B>A | B2 G>G G2 AB |
cBAG edcB | A>GA>G A2 (de/f/)|
g2 d>d d2 B>A | B2 G>G G2 A2 | Bd de/c/ B2 A2 |
de/f/ ge d2 c2 | Bdec BdcA | G2 G>G G2 :|


